map_marker_monochrome/openmoji_double_curly_loop.svg

<svg xmlns="http://www.w3.org/2000/svg" width="24" height="24" viewBox="0 0 24 24"> <g transform="scale(0.333333333)">  <g id="line">
    <path fill="none" stroke="#000" stroke-linecap="round" stroke-linejoin="round" stroke-width="1.797" d="M65.1563,24.8639a47.7773,47.7773,0,0,0-14.4209,2.8752A34.6254,34.6254,0,0,0,36,24.8639a34.5656,34.5656,0,0,0-14.7354,2.8752,47.8142,47.8142,0,0,0-14.43-2.8752A1.7614,1.7614,0,0,0,4.9928,26.607a1.7977,1.7977,0,0,0,1.7431,1.8509A44.1922,44.1922,0,0,1,17.2124,30.174c-4.5644,3.4592-6.3254,7.8439-6.3254,10.6382,0,4.5554,2.8932,9.8745,11.0695,9.8745,3.9,0,7.5294-1.7521,9.0209-4.3667a11.2756,11.2756,0,0,0,.5121-9.8925,14.5656,14.5656,0,0,0-5.8851-6.5231A33.939,33.939,0,0,1,36,28.4579a34.0242,34.0242,0,0,1,10.3956,1.4465,14.4636,14.4636,0,0,0-5.8851,6.5231,11.2459,11.2459,0,0,0,.5121,9.8925c1.4915,2.6146,5.1124,4.3667,9.0209,4.3667,8.1673,0,11.0695-5.3191,11.0695-9.8745,0-2.7943-1.77-7.188-6.3524-10.6562a48.416,48.416,0,0,1,10.5035-1.6981,1.7978,1.7978,0,0,0-.1078-3.594ZM28.1741,37.82a7.6329,7.6329,0,0,1-.3235,6.7208c-.7278,1.2669-2.983,2.5517-5.8941,2.5517-6.7478,0-7.4755-4.3937-7.4755-6.2805,0-1.5364,1.4915-5.966,6.9184-9.0838C24.4453,33.139,27.033,35.1157,28.1741,37.82Zm29.3449,2.992c0,1.8868-.7277,6.2805-7.4755,6.2805-2.92,0-5.1753-1.2848-5.9031-2.5517a7.6626,7.6626,0,0,1-.3235-6.7208c1.1771-2.7763,3.7558-4.744,6.73-6.1188C56.0185,34.8193,57.519,39.2758,57.519,40.8122Z"/>
  </g></g></svg>

<svg xmlns="http://www.w3.org/2000/svg" width="24" height="24" viewBox="0 0 24 24"> <g transform="translate(0.0 6.803889437130199) scale(0.3760980829951624)">
  
  <g
     id="line"
     transform="translate(-4.0934923,-23.953523)">
    <path
       fill="none"
       stroke="#000"
       stroke-linecap="round"
       stroke-linejoin="round"
       stroke-width="1.797"
       d="M 65.1563,24.8639 A 47.7773,47.7773 0 0 0 50.7354,27.7391 34.6254,34.6254 0 0 0 36,24.8639 34.5656,34.5656 0 0 0 21.2646,27.7391 47.8142,47.8142 0 0 0 6.8346,24.8639 1.7614,1.7614 0 0 0 4.9928,26.607 1.7977,1.7977 0 0 0 6.7359,28.4579 44.1922,44.1922 0 0 1 17.2124,30.174 c -4.5644,3.4592 -6.3254,7.8439 -6.3254,10.6382 0,4.5554 2.8932,9.8745 11.0695,9.8745 3.9,0 7.5294,-1.7521 9.0209,-4.3667 A 11.2756,11.2756 0 0 0 31.4895,36.4275 14.5656,14.5656 0 0 0 25.6044,29.9044 33.939,33.939 0 0 1 36,28.4579 a 34.0242,34.0242 0 0 1 10.3956,1.4465 14.4636,14.4636 0 0 0 -5.8851,6.5231 11.2459,11.2459 0 0 0 0.5121,9.8925 c 1.4915,2.6146 5.1124,4.3667 9.0209,4.3667 8.1673,0 11.0695,-5.3191 11.0695,-9.8745 0,-2.7943 -1.77,-7.188 -6.3524,-10.6562 a 48.416,48.416 0 0 1 10.5035,-1.6981 1.7978082,1.7978082 0 0 0 -0.1078,-3.594 z M 28.1741,37.82 a 7.6329,7.6329 0 0 1 -0.3235,6.7208 c -0.7278,1.2669 -2.983,2.5517 -5.8941,2.5517 -6.7478,0 -7.4755,-4.3937 -7.4755,-6.2805 0,-1.5364 1.4915,-5.966 6.9184,-9.0838 3.0459,1.4108 5.6336,3.3875 6.7747,6.0918 z m 29.3449,2.992 c 0,1.8868 -0.7277,6.2805 -7.4755,6.2805 -2.92,0 -5.1753,-1.2848 -5.9031,-2.5517 A 7.6626,7.6626 0 0 1 43.8169,37.82 c 1.1771,-2.7763 3.7558,-4.744 6.73,-6.1188 5.4716,3.1181 6.9721,7.5746 6.9721,9.111 z"
       id="path2" />
  </g>
</g></svg>
